blockchains/ethereum/assets/0x6810e776880C02933D47DB1b9fc05908e5386b96/logo.svg

<svg fill="none" height="250" viewBox="0 0 250 250" width="250" xmlns="http://www.w3.org/2000/svg" xmlns:xlink="http://www.w3.org/1999/xlink"><clipPath id="a"><path d="m0 0h250v250h-250z"/></clipPath><g clip-path="url(#a)" clip-rule="evenodd" fill="#00a6c4" fill-rule="evenodd"><path d="m20.739 62.9375c.3866.3445.7036.6057.9974.8905 3.1379 3.0311 6.2487 6.0896 9.4265 9.0821.7127.6704.7165 1.1306.2062 1.9018-6.6585 10.0398-9.0799 21.0398-6.8582 32.6991 2.9781 15.639 12.1082 27.035 27.0245 33.903 8.8105 4.055 18.1559 5.096 27.7629 3.676 6.4561-.953 12.5025-3.121 18.0206-6.532.9149-.566 1.4162-.501 2.1623.23 8.1078 7.944 16.2668 15.84 24.3658 23.791.895.88 1.357.979 2.32.043 9.259-9.018 18.593-17.966 27.852-26.983 1.018-.993 1.656-1.163 2.991-.388 8.096 4.703 16.918 6.588 26.35 6.163 18.723-.845 35.822-13.473 41.624-30.809 4.393-13.1302 2.763-25.5879-4.396-37.4374-.468-.7736-.51-1.2525.208-1.9204 2.609-2.4254 5.145-4.9216 7.714-7.3881.239-.2288.506-.4303.765-.6492 27.434 38.9171 31.303 101.5211-12.836 147.6171-45.715 47.742-121.1588 51.459-171.5312 10.479-51.15465-41.618-57.2371-109.946-24.1688-158.3685z"/><path d="m210.85 47.5009c-49.093-48.44902-128.9141-44.34081-171.5043-1.9341.2474.2699.4884.556.7565.8147 28.1366 27.2152 56.2783 54.4255 84.3978 81.6575.792.767 1.24.673 1.963-.034 3.631-3.556 7.3-7.076 10.97-10.595 23.728-22.7561 47.459-45.5111 71.203-68.2524.636-.6107 1.425-1.0734 2.214-1.6567zm-85.431 97.7211c-34.322-33.245-68.5527-66.4002-102.8697-99.6403.2474-.3184.4459-.6219.692-.8843 12.3789-13.2575 26.7462-23.9689 43.5168-31.5908 9.1533-4.16044 18.6662-7.29601 28.5631-9.35323 11.3968-2.36816 22.9188-3.330842 34.5578-2.825867 16.973.733827 33.214 4.485077 48.736 11.170397 18.664 8.0373 34.42 19.7886 47.793 34.6269.773.8582.328 1.2425-.267 1.8134-16.634 15.9614-33.26 31.9291-49.884 47.9005-16.588 15.9363-33.172 31.8783-49.761 47.8163-.3.288-.622.559-1.077.967z"/><path d="m81.191 121.921c-6.9678 6.155-22.4562 7.579-32.7088-2.307-10.2873-9.918-8.8788-24.5887-2.1237-32.2156 11.6276 11.5237 23.2384 23.0316 34.8325 34.5226z"/><path d="m171.29 119.542c11.665-11.288 23.277-22.5244 34.887-33.7608 4.907 5.3023 7.185 18.8388-1.312 28.8158-9.45 11.095-25.04 11.031-33.575 4.945z"/></g></svg>

<svg width="250" height="250" viewBox="0 0 250 250" fill="none" xmlns="http://www.w3.org/2000/svg">
<g clip-path="url(#clip0_50_11088)">
<path fill-rule="evenodd" clip-rule="evenodd" d="M20.739 62.9375C21.1256 63.282 21.4426 63.5432 21.7364 63.828C24.8743 66.8591 27.9851 69.9176 31.1629 72.9101C31.8756 73.5805 31.8794 74.0407 31.3691 74.8119C24.7106 84.8517 22.2892 95.8517 24.5109 107.511C27.489 123.15 36.6191 134.546 51.5354 141.414C60.3459 145.469 69.6913 146.51 79.2983 145.09C85.7544 144.137 91.8008 141.969 97.3189 138.558C98.2338 137.992 98.7351 138.057 99.4812 138.788C107.589 146.732 115.748 154.628 123.847 162.579C124.742 163.459 125.204 163.558 126.167 162.622C135.426 153.604 144.76 144.656 154.019 135.639C155.037 134.646 155.675 134.476 157.01 135.251C165.106 139.954 173.928 141.839 183.36 141.414C202.083 140.569 219.182 127.941 224.984 110.605C229.377 97.4748 227.747 85.0171 220.588 73.1676C220.12 72.394 220.078 71.9151 220.796 71.2472C223.405 68.8218 225.941 66.3256 228.51 63.8591C228.749 63.6303 229.016 63.4288 229.275 63.2099C256.709 102.127 260.578 164.731 216.439 210.827C170.724 258.569 95.2802 262.286 44.9078 221.306C-6.24685 179.688 -12.3293 111.36 20.739 62.9375Z" fill="#00A6C4"/>
<path fill-rule="evenodd" clip-rule="evenodd" d="M210.85 47.5009C161.757 -0.94812 81.9359 3.16009 39.3457 45.5668C39.5931 45.8367 39.8341 46.1228 40.1022 46.3815C68.2388 73.5967 96.3805 100.807 124.5 128.039C125.292 128.806 125.74 128.712 126.463 128.005C130.094 124.449 133.763 120.929 137.433 117.41C161.161 94.6539 184.892 71.8989 208.636 49.1576C209.272 48.5469 210.061 48.0842 210.85 47.5009ZM125.419 145.222C91.097 111.977 56.8663 78.8218 22.5493 45.5817C22.7967 45.2633 22.9952 44.9598 23.2413 44.6974C35.6202 31.4399 49.9875 20.7285 66.7581 13.1066C75.9114 8.94616 85.4243 5.81059 95.3212 3.75337C106.718 1.38521 118.24 0.422528 129.879 0.927503C146.852 1.66133 163.093 5.41258 178.615 12.0979C197.279 20.1352 213.035 31.8865 226.408 46.7248C227.181 47.583 226.736 47.9673 226.141 48.5382C209.507 64.4996 192.881 80.4673 176.257 96.4387C159.669 112.375 143.085 128.317 126.496 144.255C126.196 144.543 125.874 144.814 125.419 145.222Z" fill="#00A6C4"/>
<path fill-rule="evenodd" clip-rule="evenodd" d="M81.191 121.921C74.2232 128.076 58.7348 129.5 48.4822 119.614C38.1949 109.696 39.6034 95.0253 46.3585 87.3984C57.9861 98.9221 69.5969 110.43 81.191 121.921Z" fill="#00A6C4"/>
<path fill-rule="evenodd" clip-rule="evenodd" d="M171.29 119.542C182.955 108.254 194.567 97.0176 206.177 85.7812C211.084 91.0835 213.362 104.62 204.865 114.597C195.415 125.692 179.825 125.628 171.29 119.542Z" fill="#00A6C4"/>
</g>
<defs>
<clipPath id="clip0_50_11088">
<rect width="250" height="250" fill="white"/>
</clipPath>
</defs>
</svg>
